frontend/landing/src/assets/social/discord.svg

<svg width="20" height="20" viewBox="0 0 20 20" fill="none" xmlns="http://www.w3.org/2000/svg">
  <path d="M16.9168 3.50098C15.6668 2.91764 14.2501 2.50098 12.7501 2.25098L12.3334 3.33431C10.8334 3.08431 9.33343 3.08431 7.83343 3.33431L7.2501 2.25098C5.83343 2.50098 4.41677 2.91764 3.08343 3.50098C0.583434 7.50098 -0.2499 11.3343 0.166767 15.1676C1.83343 16.4176 3.5001 17.1676 5.16677 17.6676C5.66677 17.1676 6.0001 16.5843 6.33343 16.001L4.66677 15.1676L5.0001 14.751C6.58488 15.5181 8.32274 15.9167 10.0834 15.9167C11.8441 15.9167 13.582 15.5181 15.1668 14.751L15.5834 15.0843L13.9168 15.9176C14.1668 16.5843 14.5001 17.1676 14.9168 17.751C16.5834 17.1676 18.2501 16.4176 20.0001 15.0843C20.4168 10.751 19.2501 6.91764 17.0001 3.50098H16.9168ZM6.66677 12.751C5.66677 12.751 4.91677 11.9176 4.91677 10.751C4.91677 9.58431 5.7501 8.66764 6.66677 8.66764C7.66677 8.66764 8.5001 9.58431 8.5001 10.751C8.5001 11.8343 7.66677 12.751 6.66677 12.751ZM13.3334 12.751C12.3334 12.751 11.5001 11.9176 11.5001 10.751C11.5001 9.58431 12.3334 8.66764 13.3334 8.66764C14.3334 8.66764 15.1668 9.58431 15.0834 10.751C15.0834 11.8343 14.2501 12.751 13.3334 12.751Z" fill="#ADB0B8"/>
  <defs>
    <rect width="20" height="20" fill="white" transform="translate(0 0.000976562)"/>
  </defs>
</svg>

<svg xmlns="http://www.w3.org/2000/svg" viewBox="0 0 20 20"><path fill="currentColor" d="M16.9168 3.501c-1.25-.5834-2.6667-1-4.1667-1.25l-.4167 1.0833c-1.5-.25-3-.25-4.5 0L7.2501 2.251c-1.4167.25-2.8333.6666-4.1667 1.25-2.5 4-3.3333 7.8333-2.9166 11.6666 1.6666 1.25 3.3333 2 5 2.5.5-.5.8333-1.0833 1.1666-1.6666l-1.6666-.8334L5 14.751a11.6675 11.6675 0 0 0 10.1667 0l.4166.3333-1.6666.8333c.25.6667.5833 1.25 1 1.8334 1.6666-.5834 3.3333-1.3334 5.0833-2.6667.4167-4.3333-.75-8.1667-3-11.5833h-.0833Zm-10.25 9.25c-1 0-1.75-.8334-1.75-2 0-1.1667.8333-2.0834 1.75-2.0834 1 0 1.8333.9167 1.8333 2.0834 0 1.0833-.8333 2-1.8333 2Zm6.6666 0c-1 0-1.8333-.8334-1.8333-2 0-1.1667.8333-2.0834 1.8333-2.0834 1 0 1.8334.9167 1.75 2.0834 0 1.0833-.8333 2-1.75 2Z"/></svg>
